X:1
L:1/8
M:3/4
K:C
 G2 |:""C"" G2 EC AG |""G7"" G2 FD B2 | G2 FD AG |""C"" G2 EC c2 | G2 EC AG |""G7"" G2 FD B2 | G2 FG AB |1 
""C"" c2 z2 G2 :|2""C"" c2 z2 A2 ||""F"" A2 FA cA |""C"" G2 EG c2 |""G7"" B2 AB dB |""C"" c2 Gc ec | 
""F"" A2 FA cA |""C"" G2 EG c2 |""G7"" B2 AB dB |""C"" [Ec]2 z2 z2 |]
